X:1
T:The Day of Christ
T:The Day of Christ
T:Andrew L. Skoog
T:Andrew L. Skoog, 1921
T:Public Domain Courtesy of the Cyber Hymnal™
T:Public Domain Courtesy of the Cyber Hymnal™
C:Andrew L. Skoog
Z:Public Domain
Z:Courtesy of the Cyber Hymnal™
%%score ( 1 2 ) ( 3 4 )
L:1/8
Q:1/4=95
M:6/8
K:E
V:1 treble 
V:2 treble 
V:3 bass 
V:4 bass 
V:1
 E | [EG][EG][EG] [GB]2 [EG] | [DF]>E[DF] [EG]2 [GB] | [ce]>[Bd][Ac] ([GB][EG])[B,E] | %4
w: 1.~We|wait for a great and|glor- i- ous day, As|ma- ny as love * the|
w: 2.~In|glor- y and pow’r our|King shall ap- pear, And|call to Him- self * His|
w: 3.~For|cross- es we’ve born then|crowns will be giv’n, For|tem- pests, e- ter- * nal|
w: 4.~We|know not the day, we|know not the hour, When|sounds the last trump * so|
 [DF]3- [DF]2 [EG] | [EA][EA][EA] [EG]2 E | [Ec][Ec][Ec] [EB]2 [EA] | [EG]>[EF][EG] [DA]2 [B,D] | %8
w: Lord, * When|sha- dows shall flee, and|clouds pass a- way, And|weep- ing no more be|
w: own; * No|dis- tance, nor death shall|part them as here, Nor|sin, with its pains, be|
w: calm; * For|path- way of thorns, rich|man- sions in Heav’n, For|war- fare, the vic- tor’s|
w: clear; * But|loud rings a cry from|truth’s loft- y tow’r, “The|day of the Lord is|
[M:9/8] [B,E]3- [B,E]2 ||"^Refrain" (E/G/)[GB][GB] [GB] | [EG]3- [EG]2 [GB] [GB][FA][GB] | %11
w: heard. *|||
w: known. *|O * won- der- ful|day, * that soon may be|
w: palm. *|||
w: near.” *|||
 [FA]3- [FA]2 ([DF]/[EG]/) [FA][FA][FA] | [DF]3- [DF]2 ([EG]/[FA]/) [GB][GB][FA] | %13
w: ||
w: here! * O * beau- ti- ful|hope, * the * pil- grim to|
w: ||
w: ||
 [EG]3- [EG]2 [GB] [GB][^^F^A][GB] | [Ge]3- [Ge]2 [EG] [EG][DF][EG] | [EA]3- [EA]3 [Ac]3 | %16
w: |||
w: cheer! * Thy com- ing we|hail * in tune- ful ac-|cord, * Thou|
w: |||
w: |||
 [GB][GB][GB] [EG]2 E [DF]2 E | E3- E2 z3 |] %18
w: ||
w: glor- i- ous day of Christ, our|Lord. *|
w: ||
w: ||
V:2
 x | x6 | x6 | x6 | x6 | x5 E | x6 | x6 |[M:9/8] x5 || E x3 | x9 | x9 | x9 | x9 | x9 | x9 | x9 | %17
 E3- E2 x3 |] %18
V:3
 [E,G,] | [E,B,][E,B,][E,B,] [E,E]2 [E,B,] | [B,,A,]>[B,,G,][B,,B,] [E,B,]2 [E,E] | %3
w: ~|~ ~ ~ ~ ~|~ ~ ~ ~ ~|
 [E,E]>[E,E][E,E] (EB,)[E,G,] | [B,,B,]3- [B,,B,]2 [E,B,] | [E,C][E,C][E,C] [E,B,]2 [E,G,] | %6
w: ~ ~ ~ ~ * ~|~ * ~|~ ~ ~ ~ ~|
 [A,,A,][B,,A,][C,A,] [E,G,]2 [C,A,] | [B,,B,]>[B,,A,][B,,G,] [B,,F,]2 [B,,A,] | %8
w: ~ ~ ~ ~ ~|~ ~ ~ ~ ~|
[M:9/8] [E,G,]3- [E,G,]2 || z z2 [E,B,] | [E,B,][E,B,][E,B,] [E,B,]2 z z2 [E,B,] | %11
w: ~ *|O|won- der- ful day that|
 [B,,B,][B,,B,][B,,B,] [B,,B,]2 z z2 [E,B,] | [B,,B,][B,,B,][B,,B,] [B,,B,]2 z z2 [B,,B,] | %13
w: soon may be here! O|beau- ti- ful hope the|
 [E,B,][E,B,][E,B,] [E,B,]2 z z2 [E,E] | [E,B,][E,B,][E,B,] [E,B,]2 z z2 [E,=D] | %15
w: pil- grim to cheer! Thy|com- ing we hail in|
 [A,C][A,C][A,C] [A,C]3 [A,,E]3 | [B,,E][B,,E][B,,E] [B,,B,]2 [B,,G,] [B,,A,]2 [E,G,] | %17
w: tune- ful ac- cord, *||
 [E,G,]3- [E,G,]2 z3 |] %18
w: |
V:4
 x | x6 | x6 | x3 E,2 x | x6 | x6 | x6 | x6 |[M:9/8] x5 || x4 | x9 | x9 | x9 | x9 | x9 | x9 | x9 | %17
 x8 |] %18

